X:1
T:Title
%%score { ( 1 3 ) | ( 2 4 ) }
L:1/8
M:4/4
K:C
V:1 treble nm="Grand Piano"
V:3 treble 
V:2 bass 
V:4 bass 
V:1
 z4 z2[Q:1/4=100] [EG]>[FA] | [EG]2 E>D C2 A>A | G6 z2 | [EG]2 [CE]>[EG] [Gc]2 [FB]>[Ec] | d6 e>d | %5
 [Ec]2 [EG]>[EG] [CE]2 [EG]>[EG] | [FA]6 [Ac]>A | G2 G>G e3 d |[M:3/4] [Ec]6 |[M:1/4] [EG]>[FA] | %10
[M:4/4] [EG]6 z2 | G2[K:bass] [CE]4[K:treble] z2 | [FB]->[DF-B-] [DF-B-]>[DF-B-] [DFB]>c d>B | %13
 z2 [EG]4 z2 | [Ec]4 z4 | [GB]2 [FA]4 z2 | G2 G>G e3 d |[M:3/4] [Ec]6 |] %18
V:2
 z4 z2 [C,C]>[C,C] | [C,C]2 [C,G,C]>[C,F,B,] [C,E,]2 [C,F,C]>[C,F,C] | [E,C]2 G,2 C2 [C,C]>[C,C] | %3
 [C,C]2 [C,G,]>[C,C] [E,C]2 [D,G,]>[C,G,] | [G,B,G]6 [G,B,G]>[G,B,F] | %5
 [C,C]2 [C,C]>[C,C] [C,G,]2 [C,C]>[C,C] | [F,C]6 [F,C]>[K:treble][F,CF] | %7
 [G,CE]2 [G,CE]>[G,CE] [G,B,G]3 [G,B,F] |[M:3/4][K:bass] [C,C]6 |[M:1/4] [C,C]>[C,C] | %10
[M:4/4] [C,C]>C, C,>C, C,>[C,G,C] [C,E,]>[C,F,C] | C->[C,C] C,>C, C,2 C,>C, | %12
 G,>G, G,>G, G,>[K:treble][G,CE] [G,B,F]>[G,DF] | [C,C]>[C,C] [C,C]>C, C,2 [C,C]>[C,C] | %14
 [C,G,]>C, C,>C, [C,C]>[C,C] [C,C]>[E,C] | [F,C]>F, F,>F, F,2 F,>[K:treble][F,CF] | %16
 [G,CE]2 [G,CE]>[G,CE] [G,B,G]3 [G,F] |[M:3/4][K:bass] [C,G,]6 |] %18
V:3
 x8 | x8 | z2 E4 [EG]>[FA] | x8 | x8 | x8 | x8 | x8 |[M:3/4] x6 |[M:1/4] x2 | %10
[M:4/4] z z/ C/ C>C C>E C>A | z z/[K:bass] E,/ G,>G, G,2[K:treble] [CEG]>[EGc] | D2 z2 z4 | %13
 [Ec]2 z z/ C/ C2 [EG]>[EG] | z z/ G,/ G,>G, [Ge]>[Fd] [Ec]>[GB] | z z/ C/ C>C C2 [CAc]>A | x8 | %17
[M:3/4] x6 |] %18
V:4
 x8 | x8 | C,6 z2 | x8 | x8 | x8 | x15/2[K:treble] x/ | x8 |[M:3/4][K:bass] x6 |[M:1/4] x2 | %10
[M:4/4] x8 | [C,E,]2 z2 z4 | x11/2[K:treble] x5/2 | x8 | x8 | x15/2[K:treble] x/ | x8 | %17
[M:3/4][K:bass] x6 |] %18

